packages/sources/icons/src/vitamix/eye-off-fill.svg

<svg width="16" height="16" viewBox="0 0 16 16" fill="none" xmlns="http://www.w3.org/2000/svg">
<path fill-rule="evenodd" clip-rule="evenodd" d="M3.01337 3.95598L0.928702 1.87198L1.87204 0.92865L15.0714 14.1286L14.128 15.0713L11.9214 12.8646C10.7488 13.6084 9.38853 14.0022 8.00004 14C4.40537 14 1.4147 11.4133 0.787369 7.99998C1.07406 6.44713 1.85512 5.02858 3.01404 3.95598H3.01337ZM9.83801 10.7813L8.86201 9.80528C8.09698 10.1713 7.18427 10.0151 6.58459 9.41537C5.9849 8.81568 5.82864 7.90298 6.19467 7.13795L5.21867 6.16195C4.34414 7.48346 4.52088 9.238 5.64142 10.3585C6.76196 11.4791 8.51649 11.6558 9.83801 10.7813ZM8.00005 2.00001C7.05338 2.00001 6.14738 2.18001 5.31605 2.50667V2.50734L7.51138 4.70134C8.55555 4.54633 9.61143 4.89508 10.3579 5.64152C11.1043 6.38795 11.4531 7.44383 11.298 8.48801L13.8714 11.0613C14.5493 10.1584 15.0084 9.11047 15.2127 8C14.5854 4.58667 11.5947 2.00001 8.00005 2.00001Z" fill="#001018"/>
</svg>

<svg width="16" height="16" fill="none" xmlns="http://www.w3.org/2000/svg"><path fill-rule="evenodd" clip-rule="evenodd" d="M3.013 3.956.93 1.872l.943-.943 13.2 13.2-.944.942-2.207-2.206A7.336 7.336 0 0 1 .787 8a7.321 7.321 0 0 1 2.227-4.044zm6.825 6.825-.976-.976a2 2 0 0 1-2.667-2.667l-.976-.976a3.333 3.333 0 0 0 4.619 4.62zM8 2c-.947 0-1.853.18-2.684.507l2.195 2.194a3.333 3.333 0 0 1 3.787 3.787l2.573 2.573A7.298 7.298 0 0 0 15.213 8 7.336 7.336 0 0 0 8 2z" fill="#001018"/></svg>
